X:1670
T:Air for Linda (Harmony)
C:Nigel Gatherer
Z:Nigel Gatherer
L:1/8
M:4/4
K:Bm
F2|G2 F2 B2 C2|d2 A2 c2 A_B|=B2 Bd eccA|B2 G2 F2 F2|
G2 F2 B2 C2|d2 A2 c2 A_B|=BFBd c2 A2|B2 FE D2:|
c2|d4 A4|c2 A2 _B2 F2|BFFE D2 F2|A2 E^G A2 A2|
d2 Ac d2 A2|cdcB A2 c2|B2 F2 B,DEG|F2 FE D2:|]

